assets/starburst-dark.svg

<svg fill="none" height="256" viewBox="0 0 256 256" width="256" xmlns="http://www.w3.org/2000/svg" xmlns:xlink="http://www.w3.org/1999/xlink">
<path d="m196 0h-136c-33.1371 0-60 26.8629-60 60v136c0 33.137 26.8629 60 60 60h136c33.137 0 60-26.863 60-60v-136c0-33.1371-26.863-60-60-60z" fill="#242938"/>
<path d="m158 119.93c-.731.248-1.461.496-2.07.869l-41.163-83.8057c4.384-.6208 8.89-.9933 13.396-.9933h.122zm-6.576 3.849-68.8072-76.1083c-4.2623 2.359-8.2812 5.0904-12.1782 8.0702l79.4024 69.6521c.487-.621.974-1.118 1.583-1.614zm-4.628 5.959-99.7396-47.4276c-2.4356 4.2213-4.6277 8.8151-6.3326 13.4089l105.2202 36.1297c.243-.745.487-1.49.852-2.111zm-1.948 8.443c0-.373.121-.745.121-1.118l-109.969-6.207c.1218 4.966.6089 9.808 1.5832 14.65l108.3858-6.208c-.121-.372-.121-.745-.121-1.117zm1.096 6.332-96.3301 33.025c2.5574 3.973 5.4802 7.698 8.6465 11.175l88.6576-42.214c-.487-.62-.731-1.365-.974-1.986zm3.897 6.456-66.0063 57.981c3.7752 1.987 7.794 3.725 11.9346 5.215l55.6547-61.582c-.609-.497-1.096-.993-1.583-1.614zm6.089 4.594-31.542 64.189c1.218 0 2.558.248 3.775.248 2.558 0 4.993-.124 7.429-.372l22.408-63.196c-.731-.373-1.34-.621-2.07-.869z" fill="#00b7c9"/>
<path d="m164.761 157.955c.367 0 .735-.125 1.103-.125l3.187 53.558c-2.819 1.37-5.761 2.616-8.703 3.612l3.31-57.17c.367 0 .735.125 1.103.125zm13.114-4.982 26.598 29.27c1.348-1.869 2.574-3.737 3.799-5.605l-28.803-25.16c-.49.498-.981.997-1.594 1.495zm6.619-15.569c0 .373.123.747.123 1.121 0 .373-.123.747-.123 1.121l36.771 2.117c.367-2.117.612-4.235.735-6.477zm-5.025-11.833 36.035-31.5116c-1.103-2.6156-2.206-5.1066-3.555-7.5977l-34.196 37.6153c.735.498 1.226.996 1.716 1.494zm-15.811-6.476c.367 0 .735-.125 1.103-.125.367 0 .735.125 1.103.125l4.29-73.4865c-3.555-1.7438-7.354-3.363-11.154-4.6085zm7.599 37.614 15.443 43.718c2.084-1.619 4.045-3.363 6.006-5.106l-19.366-39.359c-.612.249-1.348.498-2.083.747zm11.276-9.839 32.971 15.693c.858-1.992 1.593-3.985 2.206-5.978l-34.319-11.708c-.245.623-.49 1.37-.858 1.993zm.858-14.697 38.486-13.203c-.245-2.367-.612-4.733-1.103-7.1l-38.241 18.185c.368.623.613 1.37.858 2.118zm16.056-64.1451c-2.206-2.491-4.657-4.9821-7.108-7.224l-21.082 59.4111c.735.25 1.471.499 2.083.872z" fill="#1e384b"/>
</svg>

<svg width="256" height="256" viewBox="0 0 256 256" fill="none" xmlns="http://www.w3.org/2000/svg">
<path d="M196 0H60C26.8629 0 0 26.8629 0 60V196C0 229.137 26.8629 256 60 256H196C229.137 256 256 229.137 256 196V60C256 26.8629 229.137 0 196 0Z" fill="#242938"/>
<path d="M158 119.93C157.269 120.178 156.539 120.426 155.93 120.799L114.767 36.9933C119.151 36.3725 123.657 36 128.163 36H128.285L158 119.93ZM151.424 123.779L82.6168 47.6707C78.3545 50.0297 74.3356 52.7611 70.4386 55.7409L149.841 125.393C150.328 124.772 150.815 124.275 151.424 123.779ZM146.796 129.738L47.0564 82.3104C44.6208 86.5317 42.4287 91.1255 40.7238 95.7193L145.944 131.849C146.187 131.104 146.431 130.359 146.796 129.738ZM144.848 138.181C144.848 137.808 144.969 137.436 144.969 137.063L35 130.856C35.1218 135.822 35.6089 140.664 36.5832 145.506L144.969 139.298C144.848 138.926 144.848 138.553 144.848 138.181ZM145.944 144.513L49.6139 177.538C52.1713 181.511 55.0941 185.236 58.2604 188.713L146.918 146.499C146.431 145.879 146.187 145.134 145.944 144.513ZM149.841 150.969L83.8347 208.95C87.6099 210.937 91.6287 212.675 95.7693 214.165L151.424 152.583C150.815 152.086 150.328 151.59 149.841 150.969ZM155.93 155.563L124.388 219.752C125.606 219.752 126.946 220 128.163 220C130.721 220 133.156 219.876 135.592 219.628L158 156.432C157.269 156.059 156.66 155.811 155.93 155.563Z" fill="#00B7C9"/>
<path d="M164.761 157.955C165.128 157.955 165.496 157.83 165.864 157.83L169.051 211.388C166.232 212.758 163.29 214.004 160.348 215L163.658 157.83C164.025 157.83 164.393 157.955 164.761 157.955ZM177.875 152.973L204.473 182.243C205.821 180.374 207.047 178.506 208.272 176.638L179.469 151.478C178.979 151.976 178.488 152.475 177.875 152.973ZM184.494 137.404C184.494 137.777 184.617 138.151 184.617 138.525C184.617 138.898 184.494 139.272 184.494 139.646L221.265 141.763C221.632 139.646 221.877 137.528 222 135.286L184.494 137.404ZM179.469 125.571L215.504 94.0594C214.401 91.4438 213.298 88.9528 211.949 86.4617L177.753 124.077C178.488 124.575 178.979 125.073 179.469 125.571ZM163.658 119.095C164.025 119.095 164.393 118.97 164.761 118.97C165.128 118.97 165.496 119.095 165.864 119.095L170.154 45.6085C166.599 43.8647 162.8 42.2455 159 41L163.658 119.095ZM171.257 156.709L186.7 200.427C188.784 198.808 190.745 197.064 192.706 195.321L173.34 155.962C172.728 156.211 171.992 156.46 171.257 156.709ZM182.533 146.87L215.504 162.563C216.362 160.571 217.097 158.578 217.71 156.585L183.391 144.877C183.146 145.5 182.901 146.247 182.533 146.87ZM183.391 132.173L221.877 118.97C221.632 116.603 221.265 114.237 220.774 111.87L182.533 130.055C182.901 130.678 183.146 131.425 183.391 132.173ZM199.447 68.0279C197.241 65.5369 194.79 63.0458 192.339 60.8039L171.257 120.215C171.992 120.465 172.728 120.714 173.34 121.087L199.447 68.0279Z" fill="white"/>
</svg>
